world_stage/static/flags/rect/ken.svg

<svg height="600" viewBox="0 0 899.84003 600" width="899.84003" xmlns="http://www.w3.org/2000/svg" xmlns:xlink="http://www.w3.org/1999/xlink"><clipPath id="a"><path d="m0 450h674.88v-450h-674.88z" transform="translate(-257.00101 -91.406305)"/></clipPath><clipPath id="b"><path d="m0 450h674.88v-450h-674.88z" transform="translate(-257.0005 -91.406305)"/></clipPath><clipPath id="c"><path d="m0 450h674.88v-450h-674.88z" transform="translate(-257.00101 -91.406305)"/></clipPath><clipPath id="d"><path d="m0 450h674.88v-450h-674.88z" transform="translate(-417.75881 -91.406305)"/></clipPath><clipPath id="e"><path d="m0 450h674.88v-450h-674.88z" transform="translate(-417.75881 -91.406305)"/></clipPath><clipPath id="f"><path d="m0 0h674.88v450h-674.88z" transform="translate(-417.75881 -91.406305)"/></clipPath><clipPath id="g"><path d="m0 0h674.88v450h-674.88z" transform="translate(.1201 -292.50001)"/></clipPath><clipPath id="h"><path d="m0 450h674.88v-450h-674.88z" transform="translate(-390.81841 -157.5)"/></clipPath><clipPath id="i"><path d="m0 450h674.88v-450h-674.88z" transform="translate(-283.94191 -157.5)"/></clipPath><clipPath id="j"><path d="m0 450h674.88v-450h-674.88z" transform="translate(-348.62991 -225.00001)"/></clipPath><clipPath id="k"><path d="m0 450h674.88v-450h-674.88z" transform="translate(-340.19241 -208.5469)"/></clipPath><clipPath id="l"><path d="m0 450h674.88v-450h-674.88z" transform="translate(-334.56791 -241.45311)"/></clipPath><clipPath id="m"><path d="m0 450h674.88v-450h-674.88z" transform="translate(-334.56791 -208.5469)"/></clipPath><clipPath id="n"><path d="m0 450h674.88v-450h-674.88z" transform="translate(-340.19241 -241.45311)"/></clipPath><g transform="matrix(1.3333333 0 0 -1.3333333 0 600)"><path d="m0 0h674.88v450h-674.88z" fill="#fff"/><path d="m0 315h674.88v135h-674.88z"/><path d="m0 0h674.88v135h-674.88z" fill="#060"/></g><path clip-path="url(#a)" d="m0 0 4.871-2.813 131.383 227.555c7.684 2.063 11.902 9.368 16.121 16.676 2.813 4.871 14.063 24.356 18.938 49.676-19.493-16.883-30.743-36.367-33.555-41.238-4.219-7.309-8.438-14.614-6.379-22.301z" transform="matrix(1.3333333 0 0 -1.3333333 342.668 478.12493)"/><path clip-path="url(#b)" d="m0 0 4.872-2.813 131.383 227.555c7.683 2.063 11.902 9.368 16.12 16.675 2.813 4.872 14.063 24.356 18.938 49.676-19.492-16.882-30.742-36.366-33.555-41.237-4.218-7.309-8.437-14.614-6.379-22.302z" fill="none" stroke="#000" stroke-miterlimit="10" stroke-width="2.813" transform="matrix(1.3333333 0 0 -1.3333333 342.66733 478.12493)"/><path clip-path="url(#c)" d="m0 0 4.871-2.813 131.383 227.555c7.684 2.063 11.902 9.368 16.121 16.676 2.813 4.871 14.063 24.356 18.938 49.676-19.493-16.883-30.743-36.367-33.555-41.238-4.219-7.309-8.438-14.614-6.379-22.301z" fill="#fff" transform="matrix(1.3333333 0 0 -1.3333333 342.668 478.12493)"/><path clip-path="url(#d)" d="m0 0-4.871-2.813-131.383 227.555c-7.684 2.063-11.902 9.368-16.121 16.676-2.813 4.871-14.063 24.356-18.938 49.676 19.493-16.883 30.743-36.367 33.555-41.238 4.219-7.309 8.438-14.614 6.379-22.301z" transform="matrix(1.3333333 0 0 -1.3333333 557.01173 478.12493)"/><path clip-path="url(#e)" d="m0 0-4.872-2.813-131.382 227.555c-7.683 2.063-11.902 9.367-16.121 16.676-2.812 4.871-14.062 24.355-18.938 49.676 19.493-16.883 30.743-36.368 33.556-41.239 4.218-7.308 8.437-14.613 6.378-22.3z" fill="none" stroke="#000" stroke-miterlimit="10" stroke-width="2.813" transform="matrix(1.3333333 0 0 -1.3333333 557.01173 478.12493)"/><path clip-path="url(#f)" d="m0 0-4.871-2.813-131.383 227.555c-7.684 2.063-11.902 9.368-16.121 16.676-2.813 4.871-14.063 24.356-18.938 49.676 19.493-16.883 30.743-36.367 33.555-41.238 4.219-7.309 8.438-14.614 6.379-22.301z" fill="#fff" transform="matrix(1.3333333 0 0 -1.3333333 557.01173 478.12493)"/><path clip-path="url(#g)" d="m0 0v-135h284.062c8.438-22.5 36.563-67.5 53.438-67.5s45 45 53.438 67.5h284.062v135h-284.062c-8.438 22.5-36.563 67.5-53.438 67.5s-45-45-53.438-67.5z" fill="#b00" transform="matrix(1.3333333 0 0 -1.3333333 -.160133 210)"/><path clip-path="url(#h)" d="m0 0c8.437 22.5 14.062 45 14.062 67.5s-5.625 45-14.062 67.5c-8.438-22.5-14.063-45-14.063-67.5s5.625-45 14.063-67.5" transform="matrix(1.3333333 0 0 -1.3333333 521.0912 390)"/><path clip-path="url(#i)" d="m0 0c-8.437 22.5-14.062 45-14.062 67.5s5.625 45 14.062 67.5c8.438-22.5 14.063-45 14.063-67.5s-5.625-45-14.063-67.5" transform="matrix(1.3333333 0 0 -1.3333333 378.5892 390)"/><g fill="#fff"><path clip-path="url(#j)" d="m0 0c0-9.32-5.035-16.875-11.25-16.875s-11.25 7.555-11.25 16.875 5.035 16.875 11.25 16.875 11.25-7.555 11.25-16.875" transform="matrix(1.3333333 0 0 -1.3333333 464.83987 300)"/><path clip-path="url(#k)" d="m0 0s11.25-22.5 11.25-59.063c0-36.562-11.25-59.062-11.25-59.062z" transform="matrix(1.3333333 0 0 -1.3333333 453.58987 321.93747)"/><path clip-path="url(#l)" d="m0 0s-11.25 22.5-11.25 59.063c0 36.562 11.25 59.062 11.25 59.062z" transform="matrix(1.3333333 0 0 -1.3333333 446.09053 278.06253)"/><path clip-path="url(#m)" d="m0 0s-11.25-22.5-11.25-59.063c0-36.562 11.25-59.062 11.25-59.062z" transform="matrix(1.3333333 0 0 -1.3333333 446.09053 321.93747)"/><path clip-path="url(#n)" d="m0 0s11.25 22.5 11.25 59.063c0 36.562-11.25 59.062-11.25 59.062z" transform="matrix(1.3333333 0 0 -1.3333333 453.58987 278.06253)"/></g></svg>

<?xml version="1.0" encoding="UTF-8" standalone="no"?>
<!-- Created with Inkscape (http://www.inkscape.org/) -->

<svg
   version="1.1"
   id="svg1"
   width="899.84003"
   height="600"
   viewBox="0 0 899.84003 600"
   sodipodi:docname="ke.ai"
   xmlns:inkscape="http://www.inkscape.org/namespaces/inkscape"
   xmlns:sodipodi="http://sodipodi.sourceforge.net/DTD/sodipodi-0.dtd"
   xmlns="http://www.w3.org/2000/svg"
   xmlns:svg="http://www.w3.org/2000/svg">
  <defs
     id="defs1">
    <clipPath
       clipPathUnits="userSpaceOnUse"
       id="clipPath5">
      <path
         d="M 0,450 H 674.88 V 0 H 0 Z"
         transform="translate(-257.00101,-91.406305)"
         id="path5" />
    </clipPath>
    <clipPath
       clipPathUnits="userSpaceOnUse"
       id="clipPath7">
      <path
         d="M 0,450 H 674.88 V 0 H 0 Z"
         transform="translate(-257.0005,-91.406305)"
         id="path7" />
    </clipPath>
    <clipPath
       clipPathUnits="userSpaceOnUse"
       id="clipPath9">
      <path
         d="M 0,450 H 674.88 V 0 H 0 Z"
         transform="translate(-257.00101,-91.406305)"
         id="path9" />
    </clipPath>
    <clipPath
       clipPathUnits="userSpaceOnUse"
       id="clipPath11">
      <path
         d="M 0,450 H 674.88 V 0 H 0 Z"
         transform="translate(-417.75881,-91.406305)"
         id="path11" />
    </clipPath>
    <clipPath
       clipPathUnits="userSpaceOnUse"
       id="clipPath13">
      <path
         d="M 0,450 H 674.88 V 0 H 0 Z"
         transform="translate(-417.75881,-91.406305)"
         id="path13" />
    </clipPath>
    <clipPath
       clipPathUnits="userSpaceOnUse"
       id="clipPath15">
      <path
         d="M 0,0 H 674.88 V 450 H 0 Z"
         transform="translate(-417.75881,-91.406305)"
         id="path15" />
    </clipPath>
    <clipPath
       clipPathUnits="userSpaceOnUse"
       id="clipPath17">
      <path
         d="M 0,0 H 674.88 V 450 H 0 Z"
         transform="translate(0.1201,-292.50001)"
         id="path17" />
    </clipPath>
    <clipPath
       clipPathUnits="userSpaceOnUse"
       id="clipPath19">
      <path
         d="M 0,450 H 674.88 V 0 H 0 Z"
         transform="translate(-390.81841,-157.5)"
         id="path19" />
    </clipPath>
    <clipPath
       clipPathUnits="userSpaceOnUse"
       id="clipPath21">
      <path
         d="M 0,450 H 674.88 V 0 H 0 Z"
         transform="translate(-283.94191,-157.5)"
         id="path21" />
    </clipPath>
    <clipPath
       clipPathUnits="userSpaceOnUse"
       id="clipPath23">
      <path
         d="M 0,450 H 674.88 V 0 H 0 Z"
         transform="translate(-348.62991,-225.00001)"
         id="path23" />
    </clipPath>
    <clipPath
       clipPathUnits="userSpaceOnUse"
       id="clipPath25">
      <path
         d="M 0,450 H 674.88 V 0 H 0 Z"
         transform="translate(-340.19241,-208.5469)"
         id="path25" />
    </clipPath>
    <clipPath
       clipPathUnits="userSpaceOnUse"
       id="clipPath27">
      <path
         d="M 0,450 H 674.88 V 0 H 0 Z"
         transform="translate(-334.56791,-241.45311)"
         id="path27" />
    </clipPath>
    <clipPath
       clipPathUnits="userSpaceOnUse"
       id="clipPath29">
      <path
         d="M 0,450 H 674.88 V 0 H 0 Z"
         transform="translate(-334.56791,-208.5469)"
         id="path29" />
    </clipPath>
    <clipPath
       clipPathUnits="userSpaceOnUse"
       id="clipPath31">
      <path
         d="M 0,450 H 674.88 V 0 H 0 Z"
         transform="translate(-340.19241,-241.45311)"
         id="path31" />
    </clipPath>
  </defs>
  <sodipodi:namedview
     id="namedview1"
     pagecolor="#ffffff"
     bordercolor="#000000"
     borderopacity="0.25"
     inkscape:showpageshadow="2"
     inkscape:pageopacity="0.0"
     inkscape:pagecheckerboard="0"
     inkscape:deskcolor="#d1d1d1">
    <inkscape:page
       x="0"
       y="0"
       inkscape:label="1"
       id="page1"
       width="899.84003"
       height="600"
       margin="0"
       bleed="0" />
  </sodipodi:namedview>
  <g
     id="layer-MC0"
     inkscape:groupmode="layer"
     inkscape:label="Layer 1">
    <path
       id="path1"
       d="M 0,0 H 674.88 V 450 H 0 Z"
       style="fill:#ffffff;fill-opacity:1;fill-rule:nonzero;stroke:none"
       transform="matrix(1.3333333,0,0,-1.3333333,0,600)" />
    <path
       id="path2"
       d="M 0,315 H 674.88 V 450 H 0 Z"
       style="fill:#000000;fill-opacity:1;fill-rule:nonzero;stroke:none"
       transform="matrix(1.3333333,0,0,-1.3333333,0,600)" />
    <path
       id="path3"
       d="M 0,0 H 674.88 V 135 H 0 Z"
       style="fill:#006600;fill-opacity:1;fill-rule:nonzero;stroke:none"
       transform="matrix(1.3333333,0,0,-1.3333333,0,600)" />
    <path
       id="path4"
       d="m 0,0 4.871,-2.813 131.383,227.555 c 7.684,2.063 11.902,9.368 16.121,16.676 2.813,4.871 14.063,24.356 18.938,49.676 -19.493,-16.883 -30.743,-36.367 -33.555,-41.238 -4.219,-7.309 -8.438,-14.614 -6.379,-22.301 z"
       style="fill:#000000;fill-opacity:1;fill-rule:nonzero;stroke:none"
       transform="matrix(1.3333333,0,0,-1.3333333,342.668,478.12493)"
       clip-path="url(#clipPath5)" />
    <path
       id="path6"
       d="m 0,0 4.872,-2.813 131.383,227.555 c 7.683,2.063 11.902,9.368 16.12,16.675 2.813,4.872 14.063,24.356 18.938,49.676 -19.492,-16.882 -30.742,-36.366 -33.555,-41.237 -4.218,-7.309 -8.437,-14.614 -6.379,-22.302 z"
       style="fill:none;stroke:#000000;stroke-width:2.813;stroke-linecap:butt;stroke-linejoin:miter;stroke-miterlimit:10;stroke-dasharray:none;stroke-opacity:1"
       transform="matrix(1.3333333,0,0,-1.3333333,342.66733,478.12493)"
       clip-path="url(#clipPath7)" />
    <path
       id="path8"
       d="m 0,0 4.871,-2.813 131.383,227.555 c 7.684,2.063 11.902,9.368 16.121,16.676 2.813,4.871 14.063,24.356 18.938,49.676 -19.493,-16.883 -30.743,-36.367 -33.555,-41.238 -4.219,-7.309 -8.438,-14.614 -6.379,-22.301 z"
       style="fill:#ffffff;fill-opacity:1;fill-rule:nonzero;stroke:none"
       transform="matrix(1.3333333,0,0,-1.3333333,342.668,478.12493)"
       clip-path="url(#clipPath9)" />
    <path
       id="path10"
       d="m 0,0 -4.871,-2.813 -131.383,227.555 c -7.684,2.063 -11.902,9.368 -16.121,16.676 -2.813,4.871 -14.063,24.356 -18.938,49.676 19.493,-16.883 30.743,-36.367 33.555,-41.238 4.219,-7.309 8.438,-14.614 6.379,-22.301 z"
       style="fill:#000000;fill-opacity:1;fill-rule:nonzero;stroke:none"
       transform="matrix(1.3333333,0,0,-1.3333333,557.01173,478.12493)"
       clip-path="url(#clipPath11)" />
    <path
       id="path12"
       d="m 0,0 -4.872,-2.813 -131.382,227.555 c -7.683,2.063 -11.902,9.367 -16.121,16.676 -2.812,4.871 -14.062,24.355 -18.938,49.676 19.493,-16.883 30.743,-36.368 33.556,-41.239 4.218,-7.308 8.437,-14.613 6.378,-22.3 z"
       style="fill:none;stroke:#000000;stroke-width:2.813;stroke-linecap:butt;stroke-linejoin:miter;stroke-miterlimit:10;stroke-dasharray:none;stroke-opacity:1"
       transform="matrix(1.3333333,0,0,-1.3333333,557.01173,478.12493)"
       clip-path="url(#clipPath13)" />
    <path
       id="path14"
       d="m 0,0 -4.871,-2.813 -131.383,227.555 c -7.684,2.063 -11.902,9.368 -16.121,16.676 -2.813,4.871 -14.063,24.356 -18.938,49.676 19.493,-16.883 30.743,-36.367 33.555,-41.238 4.219,-7.309 8.438,-14.614 6.379,-22.301 z"
       style="fill:#ffffff;fill-opacity:1;fill-rule:nonzero;stroke:none"
       transform="matrix(1.3333333,0,0,-1.3333333,557.01173,478.12493)"
       clip-path="url(#clipPath15)" />
    <path
       id="path16"
       d="m 0,0 v -135 h 284.062 c 8.438,-22.5 36.563,-67.5 53.438,-67.5 16.875,0 45,45 53.438,67.5 H 675 V 0 H 390.938 C 382.5,22.5 354.375,67.5 337.5,67.5 c -16.875,0 -45,-45 -53.438,-67.5 z"
       style="fill:#bb0000;fill-opacity:1;fill-rule:nonzero;stroke:none"
       transform="matrix(1.3333333,0,0,-1.3333333,-0.16013333,210)"
       clip-path="url(#clipPath17)" />
    <path
       id="path18"
       d="M 0,0 C 8.437,22.5 14.062,45 14.062,67.5 14.062,90 8.437,112.5 0,135 -8.438,112.5 -14.063,90 -14.063,67.5 -14.063,45 -8.438,22.5 0,0"
       style="fill:#000000;fill-opacity:1;fill-rule:nonzero;stroke:none"
       transform="matrix(1.3333333,0,0,-1.3333333,521.0912,390)"
       clip-path="url(#clipPath19)" />
    <path
       id="path20"
       d="M 0,0 C -8.437,22.5 -14.062,45 -14.062,67.5 -14.062,90 -8.437,112.5 0,135 8.438,112.5 14.063,90 14.063,67.5 14.063,45 8.438,22.5 0,0"
       style="fill:#000000;fill-opacity:1;fill-rule:nonzero;stroke:none"
       transform="matrix(1.3333333,0,0,-1.3333333,378.5892,390)"
       clip-path="url(#clipPath21)" />
    <path
       id="path22"
       d="m 0,0 c 0,-9.32 -5.035,-16.875 -11.25,-16.875 -6.215,0 -11.25,7.555 -11.25,16.875 0,9.32 5.035,16.875 11.25,16.875 C -5.035,16.875 0,9.32 0,0"
       style="fill:#ffffff;fill-opacity:1;fill-rule:nonzero;stroke:none"
       transform="matrix(1.3333333,0,0,-1.3333333,464.83987,300)"
       clip-path="url(#clipPath23)" />
    <path
       id="path24"
       d="M 0,0 C 0,0 11.25,-22.5 11.25,-59.063 11.25,-95.625 0,-118.125 0,-118.125 Z"
       style="fill:#ffffff;fill-opacity:1;fill-rule:nonzero;stroke:none"
       transform="matrix(1.3333333,0,0,-1.3333333,453.58987,321.93747)"
       clip-path="url(#clipPath25)" />
    <path
       id="path26"
       d="M 0,0 C 0,0 -11.25,22.5 -11.25,59.063 -11.25,95.625 0,118.125 0,118.125 Z"
       style="fill:#ffffff;fill-opacity:1;fill-rule:nonzero;stroke:none"
       transform="matrix(1.3333333,0,0,-1.3333333,446.09053,278.06253)"
       clip-path="url(#clipPath27)" />
    <path
       id="path28"
       d="M 0,0 C 0,0 -11.25,-22.5 -11.25,-59.063 -11.25,-95.625 0,-118.125 0,-118.125 Z"
       style="fill:#ffffff;fill-opacity:1;fill-rule:nonzero;stroke:none"
       transform="matrix(1.3333333,0,0,-1.3333333,446.09053,321.93747)"
       clip-path="url(#clipPath29)" />
    <path
       id="path30"
       d="M 0,0 C 0,0 11.25,22.5 11.25,59.063 11.25,95.625 0,118.125 0,118.125 Z"
       style="fill:#ffffff;fill-opacity:1;fill-rule:nonzero;stroke:none"
       transform="matrix(1.3333333,0,0,-1.3333333,453.58987,278.06253)"
       clip-path="url(#clipPath31)" />
  </g>
</svg>
